X: 42046
T: Waltz For Vicki
R: waltz
M: 3/4
K: Bminor
|:A>B FA Bd|e>f de fa|b>a fa fd|e>f dB AF|
B>d cB AB|d>b aa>fd|e/f/g ed>BA|1 F/A/B AB2F:|2 F/A/B AB2d||
|:AF BA2B|dB ed>fa|b/a/f dd/e/ fe|dc BA>Bd|
g2 fe cA|1 B/c/d BB2d:|2 B/c/d BB2F|B/c/d Bd2F|B/c/d BB3||

